svg/u1f3b2.svg

<svg viewBox="0 0 128 128" xmlns="http://www.w3.org/2000/svg">
  <path d="M33.09,16.55c0,0-11.5,4.75-14.2,6.7c-3.29,2.38-7.29,5.41-9.41,9.46 c-2.03,3.87-2.84,6.83-2.99,11.79c-0.15,4.96,5.15,46.15,5.15,46.15s28.72,27.06,33.25,29.11s11.21,4.56,19.23,4.41 c8.02-0.15,13.29-2.62,16.36-4.08c3.06-1.46,39.4-55.26,39.7-59.64s0.59-12.73,0.41-16.26c-0.19-3.62-0.93-6.51-2.83-10.16 s-5.02-7.21-6.91-8.82c-1.9-1.6-25.75-12.31-32.97-13.93C57.02,6.63,33.09,16.55,33.09,16.55z" fill="#CECECE"/>
  <path d="M15.44,29.1c0.14,4.89,4.08,7.15,12.11,11.23S56,56.38,64.46,56.67c8.46,0.29,39.82-18.77,44.35-21.7 c4.48-2.9,5.23-7.53,1.02-10.69C103.99,19.91,77.88,7.8,72.34,5.76C69.51,4.72,62.3,3.1,56.58,5.32 c-4.52,1.75-33.19,15.02-35.96,16.77C17.85,23.84,15.37,26.37,15.44,29.1z" fill="#EAEAEA"/>
  <path d="M34.34,19.12c-1.78-2.01-14.31,4.55-14.31,10.14c0,5.42,11.37,12.32,14.22,9.76 c2.05-1.84-5.21-7.58-4.26-10.9C30.93,24.8,35.86,20.82,34.34,19.12z" fill="#FFFFFF"/>
  <path d="M46.74,48.08c-1.97,2.85,10.62,8.98,18.3,8.98c7.23,0,19.04-7.06,17.52-9.11 c-2.46-3.32-8.43-0.2-17.72,0C59.72,48.06,48.79,45.11,46.74,48.08z" fill="#FFFFFF"/>
  <path d="M92.41,39.04c2.46,1.61,16.49-5.5,16.77-9.76s-8.72-9.38-11.28-7.58c-2.56,1.8,0.76,3.13-0.09,6.25 S89.46,37.11,92.41,39.04z" fill="#FFFFFF"/>
  <path d="M6.48,45.09C6.33,50.26,6.64,81.82,6.71,86.1c0.07,4.72,1.23,9.97,4.37,12.66 s28.57,18.82,34.29,21.29c8.01,3.46,15.8-0.34,16.36-8.96c0.56-8.63,0.22-34.96,0.22-38.54S60.15,63.69,56.23,61 c-3.92-2.69-34.92-20.47-38.1-22.3C13.65,36.13,6.71,37.36,6.48,45.09z" fill="#DFDFDF"/>
  <path d="M70.68,61.34c-3.36,2.66-4.71,6.5-4.71,10.64s-0.22,36.08-0.11,39.33 c0.11,3.25,4.71,11.88,11.88,9.75c7.41-2.2,16.81-8.85,23.53-12.89c6.72-4.03,11.96-7.45,14.3-9.37c3-2.45,5.03-8.38,5.14-13.42 c0.11-4.93-0.03-35.79-0.12-38.21c-0.22-5.68-2.52-10.37-8.68-9.03S75.5,57.53,70.68,61.34z" fill="#B8B8B8"/>
  <ellipse cx="64.29" cy="29.27" rx="13.81" ry="9.93" fill="#FE4E27"/>
  <path d="M26.49,55.55c1.8,5.02,1.26,10.22-2.59,11.6s-8.46-2.05-10.23-6.96c-1.81-5.02-1.36-10.23,2.59-11.6 C20.13,47.26,24.69,50.53,26.49,55.55z" fill="#2F2F2F"/>
  <path d="M51.82,99.6c2.14,4.88,2.02,10.66-1.72,12.3c-3.74,1.64-8.81-1.77-10.92-6.55 c-2.15-4.88-1.83-10.23,1.91-11.87C44.84,91.84,49.68,94.72,51.82,99.6z" fill="#2F2F2F"/>
  <path d="M101.96,66.96c3.27,1.86,8.53-0.45,11.24-5.19c2.71-4.75,2.25-10.1-1.01-11.97 c-3.27-1.86-8.44,0.44-11.15,5.19C98.33,59.73,98.69,65.1,101.96,66.96z" fill="#2F2F2F"/>
  <path d="M89.04,88.7c3.32,1.94,8.72-0.37,11.54-5.2c2.82-4.82,2.42-10.31-0.9-12.25s-8.83,0.21-11.65,5.03 C85.21,81.12,85.73,86.76,89.04,88.7z" fill="#2F2F2F"/>
  <path d="M76.21,110.92c3.21,1.96,8.54-0.2,11.39-4.86s2.55-10.03-0.66-11.99c-3.21-1.96-8.18-0.58-11.46,4.61 C72.56,103.29,73,108.96,76.21,110.92z" fill="#2F2F2F"/>
</svg>

<svg viewBox="0 0 128 128" xmlns="http://www.w3.org/2000/svg">
  <defs/>
  <path d="M33.09,16.55 C33.09,16.55 21.59,21.3 18.89,23.25 C15.6,25.63 11.6,28.66 9.48,32.71 C7.45,36.58 6.64,39.54 6.49,44.5 C6.34,49.46 11.64,90.65 11.64,90.65 C11.64,90.65 40.36,117.71 44.89,119.76 C49.42,121.81 56.1,124.32 64.12,124.17 C72.14,124.02 77.41,121.55 80.48,120.09 C83.54,118.63 119.88,64.83 120.18,60.45 C120.48,56.07 120.77,47.72 120.59,44.19 C120.4,40.57 119.66,37.68 117.76,34.03 C115.86,30.38 112.74,26.82 110.85,25.21 C108.95,23.61 85.1,12.9 77.88,11.28 C57.02,6.63 33.09,16.55 33.09,16.55 Z" fill="#CECECE"/>
  <path d="M15.44,29.1 C15.58,33.99 19.52,36.25 27.55,40.33 C35.58,44.41 56,56.38 64.46,56.67 C72.92,56.96 104.28,37.9 108.81,34.97 C113.29,32.07 114.04,27.44 109.83,24.28 C103.99,19.91 77.88,7.8 72.34,5.76 C69.51,4.72 62.3,3.1 56.58,5.32 C52.06,7.07 23.39,20.34 20.62,22.09 C17.85,23.84 15.37,26.37 15.44,29.1 Z" fill="#EAEAEA"/>
  <path d="M34.34,19.12 C32.56,17.11 20.03,23.67 20.03,29.26 C20.03,34.68 31.4,41.58 34.25,39.02 C36.3,37.18 29.04,31.44 29.99,28.12 C30.93,24.8 35.86,20.82 34.34,19.12 Z" fill="#FFFFFF"/>
  <path d="M46.74,48.08 C44.77,50.93 57.36,57.06 65.04,57.06 C72.27,57.06 84.08,50 82.56,47.95 C80.1,44.63 74.13,47.75 64.84,47.95 C59.72,48.06 48.79,45.11 46.74,48.08 Z" fill="#FFFFFF"/>
  <path d="M92.41,39.04 C94.87,40.65 108.9,33.54 109.18,29.28 C109.46,25.02 100.46,19.9 97.9,21.7 C95.34,23.5 98.66,24.83 97.81,27.95 C96.96,31.07 89.46,37.11 92.41,39.04 Z" fill="#FFFFFF"/>
  <path d="M6.48,45.09 C6.33,50.26 6.64,81.82 6.71,86.1 C6.78,90.82 7.94,96.07 11.08,98.76 C14.22,101.45 39.65,117.58 45.37,120.05 C53.38,123.51 61.17,119.71 61.73,111.09 C62.29,102.46 61.95,76.13 61.95,72.55 C61.95,68.97 60.15,63.69 56.23,61 C52.31,58.31 21.31,40.53 18.13,38.7 C13.65,36.13 6.71,37.36 6.48,45.09 Z" fill="#DFDFDF"/>
  <path d="M70.68,61.34 C67.32,64 65.97,67.84 65.97,71.98 C65.97,76.12 65.75,108.06 65.86,111.31 C65.97,114.56 70.57,123.19 77.74,121.06 C85.15,118.86 94.55,112.21 101.27,108.17 C107.99,104.14 113.23,100.72 115.57,98.8 C118.57,96.35 120.6,90.42 120.71,85.38 C120.82,80.45 120.68,49.59 120.59,47.17 C120.37,41.49 118.07,36.8 111.91,38.14 C105.75,39.48 75.5,57.53 70.68,61.34 Z" fill="#B8B8B8"/>
  <path d="M78.1,29.27 A13.81 9.93 0 1 1 50.48,29.27 A13.81 9.93 0 1 1 78.1,29.27 Z" fill="#FE4E27"/>
  <path d="M26.49,55.55 C28.29,60.57 27.75,65.77 23.9,67.15 C20.05,68.53 15.44,65.1 13.67,60.19 C11.86,55.17 12.31,49.96 16.26,48.59 C20.13,47.26 24.69,50.53 26.49,55.55 Z" fill="#2F2F2F"/>
  <path d="M51.82,99.6 C53.96,104.48 53.84,110.26 50.1,111.9 C46.36,113.54 41.29,110.13 39.18,105.35 C37.03,100.47 37.35,95.12 41.09,93.48 C44.84,91.84 49.68,94.72 51.82,99.6 Z" fill="#2F2F2F"/>
  <path d="M101.96,66.96 C105.23,68.82 110.49,66.51 113.2,61.77 C115.91,57.02 115.45,51.67 112.19,49.8 C108.92,47.94 103.75,50.24 101.04,54.99 C98.33,59.73 98.69,65.1 101.96,66.96 Z" fill="#2F2F2F"/>
  <path d="M89.04,88.7 C92.36,90.64 97.76,88.33 100.58,83.5 C103.4,78.68 103,73.19 99.68,71.25 C96.36,69.31 90.85,71.46 88.03,76.28 C85.21,81.12 85.73,86.76 89.04,88.7 Z" fill="#2F2F2F"/>
  <path d="M76.21,110.92 C79.42,112.88 84.75,110.72 87.6,106.06 C90.45,101.4 90.15,96.03 86.94,94.07 C83.73,92.11 78.76,93.49 75.48,98.68 C72.56,103.29 73,108.96 76.21,110.92 Z" fill="#2F2F2F"/>
</svg>
